; Generated by Euclid.
; Estimated print time: 10min 54sec
M900
G90
T0
M83
; preamble
M106 S0
; might not need m106 here anymore sice fans always on
M109 S210.0
M104 S210.0
M125 S39
M42 P24 S255
G28
G29
G91
G1 Z1.0 F2000.0
G90
G1 X95.0 Y177.0 F9000.0
G1 X1.0
G1 E15.0 F200.0
G1 E-0.35 F250.0
G1 Y150.0 F4000.0
G1 Y177.0
G1 Y150.0
G1 Y177.0
G1 Y150.0
G91
G1 Z-1.0 F2000.0
G90
G92 E0
; reset extruder value to 0, might not need anymore
M400
; set bed temperature
M140 S30.0
M104 S213.0
T1
M104 S0.0
T0
; Layer number 1
; skirt
; retract
G0 E-0.32 F960.0
G0 X78.8636 Y73.8646 Z0.18 F9000.0
; unretract
G0 E0.32 F960.0
G1 X111.1364 E0.99352 F1200.0
G1 Y106.1354 E0.99346
G1 X78.8636 E0.99352
G1 Y73.8646 E0.99346
; retract
G0 E-0.32 F960.0
G0 X93.807 Y80.924 F9000.0
; unretract
G0 E0.32 F960.0
G1 X96.193 E0.07345 F1200.0
G1 Y87.751 E0.21017
G1 X97.252 Y88.81 E0.04611
G1 X104.077 E0.21011
G1 Y91.192 E0.07333
G1 X97.25 E0.21017
G1 X96.191 Y92.251 E0.04611
G1 Y99.076 E0.21011
G1 X93.809 E0.07333
G1 Y92.251 E0.21011
G1 X92.75 Y91.192 E0.04611
G1 X85.923 E0.21017
G1 Y88.81 E0.07333
G1 X92.748 E0.21011
G1 X93.807 Y87.751 E0.04611
G1 Y80.924 E0.21017
G0 X93.39 Y80.507 F9000.0
G1 X96.61 E0.09913 F1200.0
G1 Y87.751 E0.22301
G1 X97.252 Y88.393 E0.02795
G1 X104.494 E0.22295
G1 Y91.609 E0.099
G1 X97.25 E0.22301
G1 X96.608 Y92.251 E0.02795
G1 Y99.493 E0.22295
G1 X93.392 E0.099
G1 Y92.251 E0.22295
G1 X92.75 Y91.609 E0.02795
G1 X85.506 E0.22301
G1 Y88.393 E0.099
G1 X92.748 E0.22295
G1 X93.39 Y87.751 E0.02795
G1 Y80.507 E0.22301
G0 X92.973 Y80.09 F9000.0
G1 X97.027 E0.1248 F1200.0
G1 Y87.751 E0.23584
G1 X97.252 Y87.976 E0.0098
G1 X104.911 E0.23578
G1 Y92.026 E0.12468
G1 X97.25 E0.23584
G1 X97.025 Y92.251 E0.0098
G1 Y99.91 E0.23578
G1 X92.975 E0.12468
G1 Y92.251 E0.23578
G1 X92.75 Y92.026 E0.0098
G1 X85.089 E0.23584
G1 Y87.976 E0.12468
G1 X92.748 E0.23578
G1 X92.973 Y87.751 E0.0098
G1 Y80.09 E0.23584
; retract
G0 E-0.32 F960.0
G0 X94.162 Y81.53957 F9000.0
; unretract
G0 E0.32 F960.0
G1 X94.61332 Y81.279 E0.01604 F1200.0
G0 X95.44766 F9000.0
G1 X94.162 Y82.02127 E0.0457 F1200.0
G0 Y82.50298 F9000.0
G1 X95.838 Y81.53534 E0.05958 F1200.0
G0 Y82.01704 F9000.0
G1 X94.162 Y82.98468 E0.05958 F1200.0
G0 Y83.46638 F9000.0
G1 X95.838 Y82.49874 E0.05958 F1200.0
G0 Y82.98044 F9000.0
G1 X94.162 Y83.94808 E0.05958 F1200.0
G0 Y84.42978 F9000.0
G1 X95.838 Y83.46214 E0.05958 F1200.0
G0 Y83.94384 F9000.0
G1 X94.162 Y84.91148 E0.05958 F1200.0
G0 Y85.39319 F9000.0
G1 X95.838 Y84.42555 E0.05958 F1200.0
G0 Y84.90725 F9000.0
G1 X94.162 Y85.87489 E0.05958 F1200.0
G0 Y86.35659 F9000.0
G1 X95.838 Y85.38895 E0.05958 F1200.0
G0 Y85.87065 F9000.0
G1 X94.162 Y86.83829 E0.05958 F1200.0
G0 Y87.31999 F9000.0
G1 X95.838 Y86.35235 E0.05958 F1200.0
G0 Y86.83406 F9000.0
G1 X94.04206 Y87.87094 E0.06384 F1200.0
; retract
G0 E-0.32 F960.0
G0 X92.90234 Y89.01066 F9000.0
; unretract
G0 E0.32 F960.0
G1 X95.838 Y87.31576 E0.10436 F1200.0
G0 X95.86745 Y87.78045 F9000.0
G1 X90.57336 Y90.837 E0.18819 F1200.0
G0 X91.40769 F9000.0
G1 X96.17284 Y88.08584 E0.16939 F1200.0
G0 X96.47823 Y88.39123 F9000.0
G1 X92.24202 Y90.837 E0.15059 F1200.0
G0 X92.86945 Y90.95645 F9000.0
G1 X96.78361 Y88.69661 E0.13914 F1200.0
G0 X97.089 Y89.002 F9000.0
G1 X93.17484 Y91.26184 E0.13914 F1200.0
G0 X93.48023 Y91.56723 F9000.0
G1 X97.64101 Y89.165 E0.14791 F1200.0
G0 X98.47534 F9000.0
G1 X93.78561 Y91.87261 E0.16671 F1200.0
G0 X94.091 Y92.178 F9000.0
G1 X99.30967 Y89.165 E0.18551 F1200.0
G0 X100.144 F9000.0
G1 X94.164 Y92.61756 E0.21257 F1200.0
G0 Y93.09926 F9000.0
G1 X96.11299 Y91.97401 E0.06928 F1200.0
G0 X95.836 Y92.61563 F9000.0
G1 X94.164 Y93.58096 E0.05944 F1200.0
G0 Y94.06266 F9000.0
G1 X95.836 Y93.09733 E0.05944 F1200.0
G0 Y93.57903 F9000.0
G1 X94.164 Y94.54436 E0.05944 F1200.0
G0 Y95.02607 F9000.0
G1 X95.836 Y94.06074 E0.05944 F1200.0
G0 Y94.54244 F9000.0
G1 X94.164 Y95.50777 E0.05944 F1200.0
G0 Y95.98947 F9000.0
G1 X95.836 Y95.02414 E0.05944 F1200.0
G0 Y95.50584 F9000.0
G1 X94.164 Y96.47117 E0.05944 F1200.0
G0 Y96.95287 F9000.0
G1 X95.836 Y95.98754 E0.05944 F1200.0
G0 Y96.46924 F9000.0
G1 X94.164 Y97.43457 E0.05944 F1200.0
G0 Y97.91628 F9000.0
G1 X95.836 Y96.95095 E0.05944 F1200.0
G0 Y97.43265 F9000.0
G1 X94.164 Y98.39798 E0.05944 F1200.0
G0 X94.43884 Y98.721 F9000.0
G1 X95.836 Y97.91435 E0.04967 F1200.0
G0 Y98.39605 F9000.0
G1 X95.27317 Y98.721 E0.02001 F1200.0
; retract
G0 E-0.32 F960.0
G0 X98.08235 Y90.837 F9000.0
; unretract
G0 E0.32 F960.0
G1 X100.97834 Y89.165 E0.10295 F1200.0
G0 X101.81267 F9000.0
G1 X98.91668 Y90.837 E0.10295 F1200.0
G0 X99.75101 F9000.0
G1 X102.647 Y89.165 E0.10295 F1200.0
G0 X103.48133 F9000.0
G1 X100.58534 Y90.837 E0.10295 F1200.0
G0 X101.41967 F9000.0
G1 X103.722 Y89.50775 E0.08184 F1200.0
G0 Y89.98945 F9000.0
G1 X102.25401 Y90.837 E0.05218 F1200.0
G0 X103.08834 F9000.0
G1 X103.722 Y90.47115 E0.02253 F1200.0
; retract
G0 E-0.32 F960.0
G0 X92.63502 Y89.165 F9000.0
; unretract
G0 E0.32 F960.0
G1 X89.73903 Y90.837 E0.10295 F1200.0
G0 X88.9047 F9000.0
G1 X91.80069 Y89.165 E0.10295 F1200.0
G0 X90.96635 F9000.0
G1 X88.07036 Y90.837 E0.10295 F1200.0
G0 X87.23603 F9000.0
G1 X90.13202 Y89.165 E0.10295 F1200.0
G0 X89.29769 F9000.0
G1 X86.4017 Y90.837 E0.10295 F1200.0
G0 X86.278 Y90.42672 F9000.0
G1 X88.46336 Y89.165 E0.07768 F1200.0
G0 X87.62903 F9000.0
G1 X86.278 Y89.94502 E0.04803 F1200.0
G0 Y89.46331 F9000.0
G1 X86.79469 Y89.165 E0.01837 F1200.0
; Layer number 2
; retract
G0 E-0.32 F960.0
; after first layer
M106 S255
M221 S100
M104 S203.0
G0 X85.673 Y88.56 Z0.36 F9000.0
; unretract
G0 E0.32 F960.0
G1 Y91.442 E0.06716 F2400.0
G1 X92.75 E0.16491
G1 X93.559 Y92.251 E0.02666
G1 Y99.326 E0.16486
G1 X96.441 E0.06716
G1 Y92.251 E0.16486
G1 X97.25 Y91.442 E0.02666
G1 X104.327 E0.16491
G1 Y88.56 E0.06716
G1 X97.252 E0.16486
G1 X96.443 Y87.751 E0.02666
G1 Y80.674 E0.16491
G1 X93.557 E0.06725
G1 Y87.751 E0.16491
G1 X92.748 Y88.56 E0.02666
G1 X85.673 E0.16486
G0 X85.356 Y88.243 F9000.0
G1 Y91.759 E0.08193 F2400.0
G1 X92.75 E0.17229
G1 X93.242 Y92.251 E0.01621
G1 Y99.643 E0.17225
G1 X96.758 E0.08193
G1 Y92.251 E0.17225
G1 X97.25 Y91.759 E0.01621
G1 X104.644 E0.17229
G1 Y88.243 E0.08193
G1 X97.252 E0.17225
G1 X96.76 Y87.751 E0.01621
G1 Y80.357 E0.17229
G1 X93.24 E0.08202
G1 Y87.751 E0.17229
G1 X92.748 Y88.243 E0.01621
G1 X85.356 E0.17225
G0 X85.039 Y87.926 F9000.0
G1 Y92.076 E0.0967 F1200.0
G1 X92.75 E0.17968
G1 X92.925 Y92.251 E0.00577
G1 Y99.96 E0.17963
G1 X97.075 E0.0967
G1 Y92.251 E0.17963
G1 X97.25 Y92.076 E0.00577
G1 X104.961 E0.17968
G1 Y87.926 E0.0967
G1 X97.252 E0.17963
G1 X97.077 Y87.751 E0.00577
G1 Y80.04 E0.17968
G1 X92.923 E0.09679
G1 Y87.751 E0.17968
G1 X92.748 Y87.926 E0.00577
G1 X85.039 E0.17963
G0 X85.943 Y89.02497 F9000.0
G1 X89.66177 Y91.172 E0.10006 F3000.0
G0 X90.2961 F9000.0
G1 X86.23964 Y88.83 E0.10914 F3000.0
G0 X86.87397 F9000.0
G1 X90.93044 Y91.172 E0.10914 F3000.0
G0 X91.56477 F9000.0
G1 X87.5083 Y88.83 E0.10914 F3000.0
G0 X88.14264 F9000.0
G1 X92.1991 Y91.172 E0.10914 F3000.0
; retract
G0 E-0.32 F960.0
G0 X93.50254 Y91.92454 F9000.0
; unretract
G0 E0.32 F960.0
G1 X96.171 Y93.46518 E0.0718 F3000.0
G0 Y93.09895 F9000.0
G1 X88.77697 Y88.83 E0.19895 F3000.0
G0 X89.4113 F9000.0
G1 X96.171 Y92.73271 E0.18188 F3000.0
G0 Y92.36648 F9000.0
G1 X90.04563 Y88.83 E0.16481 F3000.0
G0 X90.67996 F9000.0
G1 X96.32997 Y92.09203 E0.15202 F3000.0
G0 X96.56215 Y91.85985 F9000.0
G1 X91.3143 Y88.83 E0.1412 F3000.0
G0 X91.94863 F9000.0
G1 X96.79433 Y91.62767 E0.13038 F3000.0
G0 X97.02651 Y91.39549 F9000.0
G1 X92.58296 Y88.83 E0.11956 F3000.0
G0 X92.91977 Y88.65823 F9000.0
G1 X97.27375 Y91.172 E0.11715 F3000.0
G0 X97.90809 F9000.0
G1 X93.15195 Y88.42605 E0.12797 F3000.0
G0 X93.38414 Y88.19386 F9000.0
G1 X98.54242 Y91.172 E0.13879 F3000.0
G0 X99.17675 F9000.0
G1 X93.61632 Y87.96168 E0.14961 F3000.0
G0 X93.827 Y87.71709 F9000.0
G1 X99.81108 Y91.172 E0.16101 F3000.0
G0 X100.44541 F9000.0
G1 X93.827 Y87.35086 E0.17808 F3000.0
G0 Y86.98463 F9000.0
G1 X101.07975 Y91.172 E0.19515 F3000.0
G0 X101.71408 F9000.0
G1 X97.65761 Y88.83 E0.10914 F3000.0
G0 X98.29195 F9000.0
G1 X102.34841 Y91.172 E0.10914 F3000.0
G0 X102.98274 F9000.0
G1 X98.92628 Y88.83 E0.10914 F3000.0
G0 X99.56061 F9000.0
G1 X103.61707 Y91.172 E0.10914 F3000.0
G0 X104.057 Y91.05976 F9000.0
G1 X100.19494 Y88.83 E0.10391 F3000.0
G0 X100.82927 F9000.0
G1 X104.057 Y90.69353 E0.08685 F3000.0
G0 Y90.3273 F9000.0
G1 X101.46361 Y88.83 E0.06978 F3000.0
G0 X102.09794 F9000.0
G1 X104.057 Y89.96107 E0.05271 F3000.0
G0 Y89.59483 F9000.0
G1 X102.73227 Y88.83 E0.03564 F3000.0
G0 X103.3666 F9000.0
G1 X104.057 Y89.2286 E0.01858 F3000.0
; retract
G0 E-0.32 F960.0
G0 X96.69792 Y88.27592 F9000.0
; unretract
G0 E0.32 F960.0
G1 X93.827 Y86.61839 E0.07725 F3000.0
G0 Y86.25216 F9000.0
G1 X96.173 Y87.60663 E0.06312 F3000.0
G0 Y87.24039 F9000.0
G1 X93.827 Y85.88593 E0.06312 F3000.0
G0 Y85.5197 F9000.0
G1 X96.173 Y86.87416 E0.06312 F3000.0
G0 Y86.50793 F9000.0
G1 X93.827 Y85.15347 E0.06312 F3000.0
G0 Y84.78724 F9000.0
G1 X96.173 Y86.1417 E0.06312 F3000.0
G0 Y85.77547 F9000.0
G1 X93.827 Y84.421 E0.06312 F3000.0
G0 Y84.05477 F9000.0
G1 X96.173 Y85.40924 E0.06312 F3000.0
G0 Y85.043 F9000.0
G1 X93.827 Y83.68854 E0.06312 F3000.0
G0 Y83.32231 F9000.0
G1 X96.173 Y84.67677 E0.06312 F3000.0
G0 Y84.31054 F9000.0
G1 X93.827 Y82.95608 E0.06312 F3000.0
G0 Y82.58985 F9000.0
G1 X96.173 Y83.94431 E0.06312 F3000.0
G0 Y83.57808 F9000.0
G1 X93.827 Y82.22361 E0.06312 F3000.0
G0 Y81.85738 F9000.0
G1 X96.173 Y83.21185 E0.06312 F3000.0
G0 Y82.84561 F9000.0
G1 X93.827 Y81.49115 E0.06312 F3000.0
G0 Y81.12492 F9000.0
G1 X96.173 Y82.47938 E0.06312 F3000.0
G0 Y82.11315 F9000.0
G1 X94.14797 Y80.944 E0.05449 F3000.0
G0 X94.7823 F9000.0
G1 X96.173 Y81.74692 E0.03742 F3000.0
G0 Y81.38069 F9000.0
G1 X95.41663 Y80.944 E0.02035 F3000.0
; retract
G0 E-0.32 F960.0
G0 X93.829 Y92.47925 F9000.0
; unretract
G0 E0.32 F960.0
G1 X96.171 Y93.83141 E0.06301 F3000.0
G0 Y94.19764 F9000.0
G1 X93.829 Y92.84549 E0.06301 F3000.0
G0 Y93.21172 F9000.0
G1 X96.171 Y94.56387 E0.06301 F3000.0
G0 Y94.9301 F9000.0
G1 X93.829 Y93.57795 E0.06301 F3000.0
G0 Y93.94418 F9000.0
G1 X96.171 Y95.29634 E0.06301 F3000.0
G0 Y95.66257 F9000.0
G1 X93.829 Y94.31041 E0.06301 F3000.0
G0 Y94.67664 F9000.0
G1 X96.171 Y96.0288 E0.06301 F3000.0
G0 Y96.39503 F9000.0
G1 X93.829 Y95.04288 E0.06301 F3000.0
G0 Y95.40911 F9000.0
G1 X96.171 Y96.76126 E0.06301 F3000.0
G0 Y97.12749 F9000.0
G1 X93.829 Y95.77534 E0.06301 F3000.0
G0 Y96.14157 F9000.0
G1 X96.171 Y97.49373 E0.06301 F3000.0
G0 Y97.85996 F9000.0
G1 X93.829 Y96.5078 E0.06301 F3000.0
G0 Y96.87403 F9000.0
G1 X96.171 Y98.22619 E0.06301 F3000.0
G0 Y98.59242 F9000.0
G1 X93.829 Y97.24027 E0.06301 F3000.0
G0 Y97.6065 F9000.0
G1 X96.171 Y98.95865 E0.06301 F3000.0
G0 X95.70528 Y99.056 F9000.0
G1 X93.829 Y97.97273 E0.05048 F3000.0
G0 Y98.33896 F9000.0
G1 X95.07095 Y99.056 E0.03342 F3000.0
G0 X94.43662 F9000.0
G1 X93.829 Y98.70519 E0.01635 F3000.0
; retract
G0 E-0.32 F960.0
G0 X89.02744 Y91.172 F9000.0
; unretract
G0 E0.32 F960.0
G1 X85.943 Y89.3912 E0.08299 F3000.0
G0 Y89.75743 F9000.0
G1 X88.39311 Y91.172 E0.06592 F3000.0
G0 X87.75878 F9000.0
G1 X85.943 Y90.12366 E0.04886 F3000.0
G0 Y90.48989 F9000.0
G1 X87.12445 Y91.172 E0.03179 F3000.0
G0 X86.49011 F9000.0
G1 X85.943 Y90.85612 E0.01472 F3000.0
; Layer number 3
; retract
G0 E-0.32 F960.0
G0 X85.673 Y91.442 Z0.54 F9000.0
; unretract
G0 E0.32 F960.0
G1 Y88.56 E0.06716 F2400.0
G1 X92.748 E0.16486
G1 X93.557 Y87.751 E0.02666
G1 Y80.674 E0.16491
G1 X96.443 E0.06725
G1 Y87.751 E0.16491
G1 X97.252 Y88.56 E0.02666
G1 X104.327 E0.16486
G1 Y91.442 E0.06716
G1 X97.25 E0.16491
G1 X96.441 Y92.251 E0.02666
G1 Y99.326 E0.16486
G1 X93.559 E0.06716
G1 Y92.251 E0.16486
G1 X92.75 Y91.442 E0.02666
G1 X85.673 E0.16491
G0 X85.356 Y91.759 F9000.0
G1 Y88.243 E0.08193 F2400.0
G1 X92.748 E0.17225
G1 X93.24 Y87.751 E0.01621
G1 Y80.357 E0.17229
G1 X96.76 E0.08202
G1 Y87.751 E0.17229
G1 X97.252 Y88.243 E0.01621
G1 X104.644 E0.17225
G1 Y91.759 E0.08193
G1 X97.25 E0.17229
G1 X96.758 Y92.251 E0.01621
G1 Y99.643 E0.17225
G1 X93.242 E0.08193
G1 Y92.251 E0.17225
G1 X92.75 Y91.759 E0.01621
G1 X85.356 E0.17229
G0 X85.039 Y92.076 F9000.0
G1 Y87.926 E0.0967 F1200.0
G1 X92.748 E0.17963
G1 X92.923 Y87.751 E0.00577
G1 Y80.04 E0.17968
G1 X97.077 E0.09679
G1 Y87.751 E0.17968
G1 X97.252 Y87.926 E0.00577
G1 X104.961 E0.17963
G1 Y92.076 E0.0967
G1 X97.25 E0.17968
G1 X97.075 Y92.251 E0.00577
G1 Y99.96 E0.17963
G1 X92.925 E0.0967
G1 Y92.251 E0.17963
G1 X92.75 Y92.076 E0.00577
G1 X85.039 E0.17968
; retract
G0 E-0.32 F960.0
G0 X86.24125 Y91.172 F9000.0
; unretract
G0 E0.32 F960.0
G1 Y88.83 E0.05457 F3000.0
G0 X86.55842 F9000.0
G1 Y91.172 E0.05457 F3000.0
G0 X86.87558 F9000.0
G1 X86.87558 Y88.83 E0.05457 F3000.0
G0 X87.19275 F9000.0
G1 Y91.172 E0.05457 F3000.0
G0 X87.50991 F9000.0
G1 Y88.83 E0.05457 F3000.0
G0 X87.82708 F9000.0
G1 Y91.172 E0.05457 F3000.0
G0 X88.14425 F9000.0
G1 X88.14425 Y88.83 E0.05457 F3000.0
G0 X88.46141 F9000.0
G1 Y91.172 E0.05457 F3000.0
G0 X88.77858 F9000.0
G1 Y88.83 E0.05457 F3000.0
G0 X89.09574 F9000.0
G1 X89.09574 Y91.172 E0.05457 F3000.0
G0 X89.41291 F9000.0
G1 Y88.83 E0.05457 F3000.0
G0 X89.73007 F9000.0
G1 Y91.172 E0.05457 F3000.0
G0 X90.04724 F9000.0
G1 X90.04724 Y88.83 E0.05457 F3000.0
G0 X90.36441 F9000.0
G1 Y91.172 E0.05457 F3000.0
G0 X90.68157 F9000.0
G1 Y88.83 E0.05457 F3000.0
G0 X90.99874 F9000.0
G1 Y91.172 E0.05457 F3000.0
G0 X91.3159 F9000.0
G1 X91.3159 Y88.83 E0.05457 F3000.0
G0 X91.63307 F9000.0
G1 Y91.172 E0.05457 F3000.0
G0 X91.95024 F9000.0
G1 Y88.83 E0.05457 F3000.0
G0 X92.2674 F9000.0
G1 X92.2674 Y91.172 E0.05457 F3000.0
G0 X92.58457 F9000.0
G1 Y88.83 E0.05457 F3000.0
G0 X92.90173 Y88.67627 F9000.0
G1 Y91.32373 E0.06169 F3000.0
G0 X93.2189 Y91.6409 F9000.0
G1 Y88.3591 E0.07647 F3000.0
G0 X93.53607 Y88.04193 F9000.0
G1 Y91.95807 E0.09125 F3000.0
; retract
G0 E-0.32 F960.0
G0 X96.39056 Y92.03144 F9000.0
; unretract
G0 E0.32 F960.0
G1 Y87.96856 E0.09467 F3000.0
G0 X96.70773 Y88.28573 F9000.0
G1 Y91.71427 E0.07989 F3000.0
G0 X97.02489 Y91.39711 F9000.0
G1 Y88.60289 E0.06511 F3000.0
G0 X97.34206 Y88.83 F9000.0
G1 X97.34206 Y91.172 E0.05457 F3000.0
G0 X97.65922 F9000.0
G1 X97.65922 Y88.83 E0.05457 F3000.0
G0 X97.97639 F9000.0
G1 Y91.172 E0.05457 F3000.0
G0 X98.29355 F9000.0
G1 Y88.83 E0.05457 F3000.0
G0 X98.61072 F9000.0
G1 X98.61072 Y91.172 E0.05457 F3000.0
G0 X98.92789 F9000.0
G1 Y88.83 E0.05457 F3000.0
G0 X99.24505 F9000.0
G1 Y91.172 E0.05457 F3000.0
G0 X99.56222 F9000.0
G1 Y88.83 E0.05457 F3000.0
G0 X99.87938 F9000.0
G1 Y91.172 E0.05457 F3000.0
G0 X100.19655 F9000.0
G1 Y88.83 E0.05457 F3000.0
G0 X100.51372 F9000.0
G1 Y91.172 E0.05457 F3000.0
G0 X100.83088 F9000.0
G1 Y88.83 E0.05457 F3000.0
G0 X101.14805 F9000.0
G1 Y91.172 E0.05457 F3000.0
G0 X101.46521 F9000.0
G1 Y88.83 E0.05457 F3000.0
G0 X101.78238 F9000.0
G1 X101.78238 Y91.172 E0.05457 F3000.0
G0 X102.09955 F9000.0
G1 Y88.83 E0.05457 F3000.0
G0 X102.41671 F9000.0
G1 Y91.172 E0.05457 F3000.0
G0 X102.73388 F9000.0
G1 X102.73388 Y88.83 E0.05457 F3000.0
G0 X103.05104 F9000.0
G1 Y91.172 E0.05457 F3000.0
G0 X103.36821 F9000.0
G1 Y88.83 E0.05457 F3000.0
G0 X103.68538 F9000.0
G1 Y91.172 E0.05457 F3000.0
G0 X104.00254 F9000.0
G1 X104.00254 Y88.83 E0.05457 F3000.0
; retract
G0 E-0.32 F960.0
G0 X96.07339 Y80.944 F9000.0
; unretract
G0 E0.32 F960.0
G1 Y99.056 E0.42204 F3000.0
G0 X95.75623 F9000.0
G1 Y80.944 E0.42204 F3000.0
G0 X95.43906 F9000.0
G1 X95.43906 Y99.056 E0.42204 F3000.0
G0 X95.1219 F9000.0
G1 Y80.944 E0.42204 F3000.0
G0 X94.80473 F9000.0
G1 Y99.056 E0.42204 F3000.0
G0 X94.48756 F9000.0
G1 Y80.944 E0.42204 F3000.0
G0 X94.1704 F9000.0
G1 Y99.056 E0.42204 F3000.0
G0 X93.85323 F9000.0
G1 Y80.944 E0.42204 F3000.0
; Layer number 4
; retract
G0 E-0.32 F960.0
G0 X93.557 Y80.674 Z0.72 F9000.0
; unretract
G0 E0.32 F960.0
G1 Y87.751 E0.16491 F2400.0
G1 X92.748 Y88.56 E0.02666
G1 X85.673 E0.16486
G1 Y91.442 E0.06716
G1 X92.75 E0.16491
G1 X93.559 Y92.251 E0.02666
G1 Y99.326 E0.16486
G1 X96.441 E0.06716
G1 Y92.251 E0.16486
G1 X97.25 Y91.442 E0.02666
G1 X104.327 E0.16491
G1 Y88.56 E0.06716
